!!!COM: Fanny (Mendelssohn) Hensel
!!!CNT: Deutsch
!!!TXO: Deutsch
!!!OTL: "harfners Lied"
!!!LYR: von Goethe, Johann Wolfgang
!!!OPR:
!!!OPS: Op.
!!!ONM: No.
!!!ENC: Emily Thomas
!!!YOR: Hensel: Ausgewa2hlte Lieder fu2r Singstimme und Klavier
!!!YOR: Breitkopf & Hartel, 1994 vol. 2
!!!ODT: 1825/
!!NB: Vocal melody and text encoded.
**kern	**silbe
=1-	=1
*clefG2	*
*k[b-e-]	*
*M3/4	*
*MM[Largo, rezitativisch vorgetragen]	*
4r	.
8r	.
{8g	{Wer
8d	sich
8g	der
=2	=2
4.b-	Ein-
8b-	-sam-
8g	-keit
8b-	er-
=3	=3
4dd}	-gibt,}
4r	.
4r	.
=4	=4
{4dd	{ach!
8cc	der
8b-	ist
8a	bald
8g	al-
=5	=5
4d	-lein;
8r	.
8d	ein
8e-	je-
8d	-der
=6	=6
4e-}	lebt,}
8r	.
{8en	{ein
8f	je-
8en	-der
=7	=7
4f	liebt,
8r	.
8f	und
[4g	la2sst
=8	=8
8g]	|
16a	ihn
16b-	|
4.f	sei-
8e-	-ner
=9	=9
4d}	Pein.}
4r	.
4r	.
=10	=10
{4dd	{Ja!
8cc	lasst
8b-	mich
8a	mei-
8g	-ner
=11	=11
4d}	Qual!}
4r	.
4r	.
=12	=12
{4ee-	{Ja!
8dd	lasst
8cc	mich
8b-	mei-
8g	-ner
=13	=13
4.e-	Qual!
8d	Und
8e-	kann
8d	ich
=14	=14
8g	nur
8f#	ein-
8b-	-mal
8a	recht
[4cc	ein-
=15	=15
8.cc]	|
16a	-sam
4f#}	sein,}
4r	.
=16	=16
8r	.
{8g	{so
8d	bin
8g	ich
8b-	nicht
8g	al-
=17	=17
4dd}	-lein.}
4r	.
4r	.
=18	=18
2.r	.
=19	=19
2r	.
8r	.
{8d	{Es
=20	=20
*M4/4	*
8g	schleicht
8d	ein
8B-	Lie-
16d	-ben-
16d	-der
8g	lau-
8a	-schend
4b-	sacht,
=21	=21
8b-	ob
16a	sei-
16b-	-ne
8cc	Freun-
16b-	-din
16cc	al-
4dd}	-lein?}
8r	.
{8d	{So
=22	=22
8e-	u2-
8d	-ber-
8g	-schleicht
8f#	bei
8a	Tag
8g	und
8cc	Nachht
8b-	mich
=23	=23
8ee-	Ein-
8cc	-sa-
8a	-men
8g	die
4.f#}	Pein,}
{8ee-	{mich
=24	=24
8dd	Ein-
8b-	-sa-
8g	-men
8d	die
2c#}	Qual.}
=25	=25
*M3/4	*
8r	.
{8ee-	{Ach
8cc	ko2nnt
8b-	ich
8a	nur
8g	ein-
=26	=26
8f#	-mal
8cc	ein-
8a	-sam
8f#	im
8.e	Gra-
16d	-be
=27	=27
4Bn}	sein,}
4r	.
4r	.
=28	=28
8r	.
{8g	{da
8d	la2sst
8g	sie
8b-	mich
8g	al-
=29	=29
2.dd}	-lein!}
==	==
*-	*-
